!!!COM: Schubert, Franz
!!!CNT: Deutscher
!!!TXO: Deutsch
!!!OTL: "Die Taubenpost"
!!!OPR: Schwanengesang
!!!LYR: Heine, Heinrich
!!!ONM: No. 14
!!!ODT: 1828/
!!NB: Vocal melody only encoded.
**kern	**silbe
*clefG2	*
*k[f#]	*
*M2/2	*
*MM[langsam]	*
=5	=5
2r	.
4r	.
{4b	Ich
=6	=6
4b	hab'
8b	ei-
8b	-ne
4dd	Brief-
8dd	-taub'
8dd	in
=7	=7
4cc	mei-
4b	-nem
4a}	Sold,}
8r	.
{8a	{die
=8	=8
4a	ist
8a	gar
8a	er-
4cc	-ge-
8cc	-ben
8cc	und
=9	=9
2b}	treu;}
4r	.
8r	.
{8b	{sie
=10	=10
4.b	nimmt
8b	mir
4.dd	nie
8dd	das
=11	=11
4cc	Ziel
4b	zu
4a}	kurz,}
8r	.
{8a	{und
=12	=12
4.a	fliegt
8a	auch
4cc	nie
4cc	vor-
=13	=13
2.b}	-bei.}
4r	.
=15	=15
2r	.
4r	.
{4b	{Ich
=16	=16
4.b	sen-
8a	-de
4g	sie
4f#	viel
=17	=17
4.dd	tau-
8b	-send-
4g	-mal
4g	auf
=18	=18
4b	Kund-
4b	-schaft
4dd	ta2g-
8dd	-lich
8dd	hin-
=19	=19
2a}	-aus,}
4r	.
{4a	{vor-
=20	=20
4.b	-bei
8a	an
4ee	man-
4dd	-chem
=21	=21
4.dd	lie-
8b	-ben
4g}	Ort,}
4r	.
=22	=22
{4b	{bis
8b	zu
8b	der
4dd	Lieb-
4dd	-sten
=23	=23
2b}	Haus,}
2r	.
=24	=24
{4b	{bis
8b	zu
8b	der
4dd	Lieb-
4dd	-sten
=25	=25
2g}	Haus.}
2r	.
=29	=29
2r	.
4r	.
{4b	{Dort
=30	=30
4a	schaut
8a	sie
8a	zum
4.dd	Fen-
8d	-ster
=31	=31
(b-q	heim-
ccq	|
8b-)	|
8a	|
8b-	-lich
8cc	hin-
4dd}	-ein,}
8r	.
{8dd	{be-
=32	=32
4cc#	-lauscht
8cc#	ih-
8cc#	-ren
4ee	Blick
8ee	und
8cc#	|
=33	=33
2dd}	Schritt,}
4r	.
{4a	{gibt
=34	=34
4.a	mei-
8a	-ne
4.dd	Gru2-
8ccn	-sse
=35	=35
8cc	scher-
8b	|
8b	-zend
8a	|
4b}	ab,}
8r	.
{8dd	{und
=36	=36
4.cc#	nimmt
8cc#	die
4ee	ih-
8ee	-ren
8cc#	|
=37	=37
2dd}	mit.}
4r	.
{4dd	{Kein
=38	=38
4.dd	Brief-
8dd	-chen
4ccn	brauch'
8b-	ich
8a	zu
=39	=39
4.b-	schrei-
8fn	-ben
4fn}	mehr,}
{4b-	{die
=40	=40
4ee-	Thra2-
8ee-	-ne
8ee-	selbst
4dd	geb'
4b-	ich
=41	=41
2.cc}	ihr,}
4r	.
=42	=42
{4dd	{o,
8cc	sie
8cc	ver-
4gg	-tra2gt
4ffn	sie
=43	=43
4.ffn	si-
8dd	-cher
4b-}	nicht,}
8r	.
{8dd	{gar
=44	=44
4.dd	ei-
8dd	-frig
4ffn	dient
4ffn	sie
=45	=45
2dd}	mir,}
4r	.
{4gg	{gar
=46	=46
4.dd	ei-
8dd	-frig
4ffn	dient
4ffn	sie
=47	=47
2b-}	mir.}
2r	.
=51	=51
2r	.
4r	.
8r	.
{8a	{Bei
=52	=52
4.b	Tag,
8b	bei
4.dd	Nacht,
8dd	im
=53	=53
4cc	Wa-
8b	-chen,
8b	im
4a}	Traum,}
4r	.
=54	=54
{4a	{ihr
8a	gilt
8a	das
4cc	Al-
4cc	-les
=55	=55
2b}	gleich,}
2r	.
=56	=56
{4b	{wenn
8b	sie
8b	nur
4.dd	wan-
8dd	-dern,
=57	=57
4cc	wan-
4b	-dern
4a}	kann,}
4r	.
=58	=58
{4a	{dann
8a	ist
8a	sie
4.cc	u2-
8cc	-ber-
=59	=59
2b}	-reich.}
2r	.
=61	=61
2r	.
4r	.
{4b	{Sie
=62	=62
4.b	wird
8a	nicht
4cc	mu2d',
4f#	sie
=63	=63
4.g	wird
8a	nicht
4b}	matt,}
8r	.
{8b	{der
=64	=64
4.b	Weg
8b	ist
4dd	stets
4dd	ihr
=65	=65
2a}	neu,}
4r	.
{4a	{sie
=66	=66
4.b	braucht
8a	nicht
4ee	Lock-
4dd	-ung,
=67	=67
4.dd	braucht
8b	nicht
4g}	Lohn,}
4r	.
=68	=68
{4b	{die
8b	Taub'
8b	ist
4dd	so
4dd	mir
=69	=69
2b}	treu,}
4r	.
{4gg	{die
=70	=70
4.b	Taub'
8b	ist
4dd	so
4dd	mir
=71	=71
2g}	treu.}
4r	.
{4g	{D'rum
=72	=72
4a	heg'
8cc	ich
8b	sie
4.a	auch
8a	so
=73	=73
4b	treu
8dd	an
8cc	der
4.b}	Brust,}
{8b	{ver-
=74	=74
4cc	-si-
8cc	-chert
8cc	des
4ffn	scho2n-
8ffn	-sten
8ffn	Ge-
=75	=75
2.ee}	-winns;}
4r	.
=76	=76
2r	.
4r	.
8r	.
{8ee	{sie
=77	=77
2ee	heisst:
4r	.
4b	die
=78	=78
4dd	Sehn-
4cc#}	-sucht}
2r	.
=79	=79
2r	.
{4.b	{kennt
8dd	ihr
=80	=80
2cc#}	sie?}
2r	.
=81	=81
2r	.
{4.ee	{kennt
8ffn	ihr
=82	=82
2.ee}	sie?}
{8dd	{die
8ccn	|
=83	=83
4.cc	Bo-
8b	-tin
4dd	treu-
4dd	-en
=84	=84
2b}	Sinn's,}
4r	.
{4gg	{die
=85	=85
4.gg	Bo-
8b	-tin
4dd	treu-
4dd	-en
=86	=86
2g}	Sinn's,}
4r	.
{4g	{Drum
=87	=87
4a	heg'
8cc	ich
8b	sie
4.a	auch
8a	so
=88	=88
4b	treu
8dd	an
8cc	der
4.b}	Brust,}
{8b	{ver-
=89	=89
4cc	-si-
8cc	-chert
8cc	des
4dd	scho2n-
8dd	-sten
8dd	Ge-
=90	=90
2.ee-}	-winns;}
4r	.
=91	=91
2r	.
4r	.
8r	.
{8ee-	{sie
=92	=92
2dd	heisst:
4r	.
4a	die
=93	=93
4cc	Sehn-
4bn}	-sucht}
2r	.
=94	=94
2r	.
{4.a	{kennt
8cc	ihr
=95	=95
2b}	sie?}
2r	.
=96	=96
2r	.
{4.ee	kennt
8ffn	ihr
=97	=97
2.ee}	sie?}
{8dd	{die
8cc	|
=98	=98
4.cc	Bo-
8b	-tin
4dd	treu-
4dd	-en
=99	=99
2b}	Sinn's,}
4r	.
{4gg	{die
=100	=100
4.gg	Bo-
8b	-tin
4.ee	treu-
8dd	-en
=101	=101
2g}	Sinn's.}
2r	.
*-	*-
